!!!COM: Haydn, Franz Joseph
!!!OPR: Symphony in G Minor
!!!OTL: Affettuoso 
!!!OMV: 3
!!!SCT: H I:83
!!!SCA: Thematisch-bibliographisches Werkevererzeichnis (A. van Hoboken)
!!!YOR: RISM H 3039, Choron Edition
!!!EED: Frances Bennion
!!!ENC: Frances Bennion
!!!CDT: 1732/3/31/-1809/5/31/
!!!OCY: Österreich
!!!YEC: Copyright (c) 1994, 2000 Center for Computer Assisted Research in the Humanities
!!!YEM: Rights to all derivative editions reserved.
!!!YEM: Refer to licensing agreement for further details.
!!!YEN: United States of America
**kern	**kern	**kern	**kern	**kern	**kern	**kern	**kern	**kern	**kern	**kern
*k[]	*k[f#]	*k[f#]	*k[]	*k[f#]	*k[f#]	*k[f#]	*k[f#]	*k[f#]	*k[f#]	*k[f#]
*C:	*C:	*C:	*C:	*C:	*C:	*C:	*C:	*C:	*C:	*C:
*clefF	*clefC3	*clefF4	*clefF	*clefF	*clefF	*clefF	*clefF4	*clefF4	*clefF	*clefF
*M3/4	*M3/4	*M3/4	*M3/4	*M3/4	*M3/4	*M3/4	*M3/4	*M3/4	*M3/4	*M3/4
*tb8	*tb8	*tb8	*tb8	*tb8	*tb8	*tb8	*tb8	*tb8	*tb8	*tb8
=0-	=0-	=0-	=0-	=0-	=0-	=0-	=0-	=0-	=0-	=0-
2r	2r	2r	2r	2r	2r	2r	2r	2r	2r	2r
4r	4r	4r	4r	4r	4r	8eee	4r	4r	8ee	4r
.	.	.	.	.	.	8ddd	.	.	8dd	.
=1	=1	=1	=1	=1	=1	=1	=1	=1	=1	=1
4r	4r	4r	4r	4r	4r	2.bb	4r	4r	2.b	4r
4ee	4G	4G	4cc	4b	4g	.	4B	4G	.	4d 4B
4ee	4B	4G	4cc	4b	4g	.	4B	4G	.	4d 4B
=2	=2	=2	=2	=2	=2	=2	=2	=2	=2	=2
4dd	4A	4F#	4g	8dd	4a	8ddd	4c	4A	8dd	4d 4c
.	.	.	.	8cc	.	8ccc	.	.	8cc	.
2r	2r	2r	2r	4a	2r	4aa	2r	2r	4a	2r
.	.	.	.	4r	.	8ccc	.	.	8cc	.
.	.	.	.	.	.	8bb	.	.	8b	.
=3	=3	=3	=3	=3	=3	=3	=3	=3	=3	=3
4r	4r	4r	4r	4r	4r	2.gg	4r	4r	2.g	4r
4cc	4d	4G	4e	4b	4g	.	4B	4G	.	4d 4B
4cc	4d	4G	4e	4g	4g	.	4B	4G	.	4g 4B
=4	=4	=4	=4	=4	=4	=4	=4	=4	=4	=4
4dd	4d	4D	4g	8b	4f#	8bb	4A	4D	8b	4A 4f#
.	.	.	.	8a	.	8aa	.	.	8a	.
2r	4r	4r	2r	4d	4d	4dd	4r	4r	4d	4r
.	8c#	8C#	.	4r	4r	8cc#	8C#	8C#	8c#	8c#
.	8d	8D	.	.	.	8dd	8D	8D	8d	8d
=5	=5	=5	=5	=5	=5	=5	=5	=5	=5	=5
2.r	8g	8G	2.r	8g	8g	8gg	8G	8G	8g	8g
.	8f#	8F#	.	8f#	8f#	8ff#	8F#	8F#	8f#	8f#
.	8a	8A	.	8a	8a	8aa	8A	8A	8a	8a
.	8g	8G	.	8g	8g	8gg	8G	8G	8g	8g
.	8b	8B	.	8b	8b	8bb	8B	8B	8b	8b
.	8a	8A	.	8a	8a	8aa	8A	8A	8a	8a
=6	=6	=6	=6	=6	=6	=6	=6	=6	=6	=6
2.r	8cc	8c	2.r	8cc	8cc	8ccc	8c	8c	8cc	8cc
.	8b	8B	.	8b	8b	8bb	8B	8B	8b	8b
.	8ee	8e	.	8ee	8ee	8eee	8e	8e	8ee	8ee
.	8dd	8d	.	8dd	8dd	8ddd	8d	8d	8dd	8dd
.	8cc	8c	.	8cc	8cc	8ccc	8c	8c	8cc	8cc
.	8b	8B	.	8b	8b	8bb	8B	8B	8b	8b
=7	=7	=7	=7	=7	=7	=7	=7	=7	=7	=7
2r	2cc	2c	2r	4a	4a	4aa	2c	2c	4a	4a
.	.	.	.	4aa	4aa	4ccc	.	.	4cc 4aa	4aa 4cc
4dd	4dd	4d	4g	4ff#	4ff#	4ff#	4d	4d	4ff# 4a	4ff# 4a
=8	=8	=8	=8	=8	=8	=8	=8	=8	=8	=8
4ee	4g	4G	4cc	4gg	4gg	4gg	4G	4G	4b 4gg	4gg 4b
4r	4G	4GG	4r	4r	4r	4r	4GG	4GG	4r	4r
4r	4r	4r	4r	4r	4r	4r	4r	4r	8aa#	4r
.	.	.	.	.	.	.	.	.	8bb	.
=9	=9	=9	=9	=9	=9	=9	=9	=9	=9	=9
2.r	4r	2.r	2.r	2.r	2.r	2.r	2.r	2.r	2.dd#	4r
.	4f#	.	.	.	.	.	.	.	.	4a
.	4f#	.	.	.	.	.	.	.	.	4a
=10	=10	=10	=10	=10	=10	=10	=10	=10	=10	=10
2.r	4g	2.r	2.r	2.r	2.r	2.r	2.r	2.r	8ff#	4b
.	.	.	.	.	.	.	.	.	8ee	.
.	2r	.	.	.	.	.	.	.	8gg	2r
.	.	.	.	.	.	.	.	.	8ff#	.
.	.	.	.	.	.	.	.	.	8ee	.
.	.	.	.	.	.	.	.	.	8dd	.
=11	=11	=11	=11	=11	=11	=11	=11	=11	=11	=11
2.r	4r	4r	2.r	2.r	2.r	2.r	2.r	2.r	2.cc#	4r
.	4e	4A	.	.	.	.	.	.	.	4g
.	4e	4A	.	.	.	.	.	.	.	4g
=12	=12	=12	=12	=12	=12	=12	=12	=12	=12	=12
2.r	4d	4d	2.r	2.r	2.r	2r	2.r	2.r	8ee	4f#
.	.	.	.	.	.	.	.	.	8dd	.
.	2r	2r	.	.	.	.	.	.	8gg	4r
.	.	.	.	.	.	.	.	.	8ff#	.
.	.	.	.	.	.	8bb	.	.	8bb	8gg
.	.	.	.	.	.	8aa	.	.	8aa	8ff#
=13	=13	=13	=13	=13	=13	=13	=13	=13	=13	=13
4r	4r	4r	4r	4r	4r	2ddd	4r	4r	2ddd	2ff#
4g	4dd	4d	4g	4ff#	4dd	.	4d	4d	.	.
4g	4dd	4d	4g	8gg	8ee	8gg	4d	4d	8gg	8ee
.	.	.	.	8ff#	8dd	8ff#	.	.	8ff#	8dd
=14	=14	=14	=14	=14	=14	=14	=14	=14	=14	=14
4r	4r	4r	4r	4r	4r	2ddd	4r	4r	2ddd	2ff#
4g	4b	4B	4g	4ff#	4dd	.	4B	4B	.	.
4g	4b	4B	4g	8gg	8ee	8gg	4B	4B	8gg	8ee
.	.	.	.	8ff#	8dd	8ff#	.	.	8ff#	8dd
=15	=15	=15	=15	=15	=15	=15	=15	=15	=15	=15
4r	4r	4r	4r	4r	4r	2ddd	4r	4r	2ddd	2gg#
4g	4e	4E	4g	4gg#	4gg#	.	4E	4E	.	.
4g	4e	4E	4g	8bb	8dd	8bb	4E	4E	8bb	8dd
.	.	.	.	8gg#	8b	8gg#	.	.	8gg#	8b
=16	=16	=16	=16	=16	=16	=16	=16	=16	=16	=16
4dd	4a	4A	4dd	4aa	4a	4aa	4A	4A	4aa	4a
2r	4A	4AA	2r	4r	4r	4r	4AA	4AA	4r	4r
.	4r	4r	.	8g#	8g#	8g#	4r	4r	8g#	8g#
.	.	.	.	8a	8a	8a	.	.	8a	8a
=17	=17	=17	=17	=17	=17	=17	=17	=17	=17	=17
4g	4D	4DD	4g	8dd	8dd	8dd	4DD	4DD	8dd	8dd
.	.	.	.	8a	8a	8a	.	.	8a	8a
2r	4d	4D	2r	8ff#	8ff#	8ff#	4D	4D	8ff#	8ff#
.	.	.	.	8dd	8dd	8dd	.	.	8dd	8dd
.	4e	4E	.	8gg	8gg	8gg	4E	4E	8gg	8gg
.	.	.	.	8ee	8ee	8ee	.	.	8ee	8ee
=18	=18	=18	=18	=18	=18	=18	=18	=18	=18	=18
2.r	4f#	4F#	2.r	4aa	4aa	4aa	4F#	4F#	8aa	8aa
.	.	.	.	.	.	.	.	.	8ff#	8ff#
.	2r	2r	.	2r	2r	2r	2r	2r	8dd	8dd
.	.	.	.	.	.	.	.	.	8a	8a
.	.	.	.	.	.	.	.	.	8g#	8g#
.	.	.	.	.	.	.	.	.	8a	8a
=19	=19	=19	=19	=19	=19	=19	=19	=19	=19	=19
2.r	4d	4D	2.r	2.r	2.r	2.r	4D	4DD	8dd	8dd
.	.	.	.	.	.	.	.	.	8a	8a
.	4dd	4d	.	.	.	.	4d	4D	8ff#	8ff#
.	.	.	.	.	.	.	.	.	8dd	8dd
.	4ee	4e	.	.	.	.	4e	4E	8gg	8gg
.	.	.	.	.	.	.	.	.	8ee	8ee
=20	=20	=20	=20	=20	=20	=20	=20	=20	=20	=20
2.r	4ff#	4f#	2.r	2r	2r	2r	4f#	4f#	8aa	8aa
.	.	.	.	.	.	.	.	.	8ff#	8ff#
.	4r	4r	.	.	.	.	4r	4r	8dd	8dd
.	.	.	.	.	.	.	.	.	8a	8a
.	8c#	8C#	.	4aa	4aa	4aa	8C#	8C#	4aa 4a	4aa 4a
.	8d	8D	.	.	.	.	8D	8D	.	.
=21	=21	=21	=21	=21	=21	=21	=21	=21	=21	=21
2.r	8f#	8F#	2.r	4aa	4aa	4aa	8F#	8F#	4aa 4a	4aa 4a
.	8d	8D	.	.	.	.	8D	8D	.	.
.	8g	8G	.	4aa	4aa	4aa	8G	8G	4a 4aa	4aa 4a
.	8e	8E	.	.	.	.	8E	8E	.	.
.	8a	8A	.	4aa	4aa	4aa	8A	8A	4aa 4a	4aa 4a
.	8f#	8F#	.	.	.	.	8F#	8F#	.	.
=22	=22	=22	=22	=22	=22	=22	=22	=22	=22	=22
2.r	4b	4B	2.r	4aa	4aa	4aa	4B	4B	4aa	4aa
.	4cc#	4c#	.	4gg	4gg	4gg	4c#	4c#	4gg	4gg
.	4dd	4d	.	4ff#	4ff#	4ff#	4d	4d	4ff#	4ff#
=23	=23	=23	=23	=23	=23	=23	=23	=23	=23	=23
2.r	4g	4G	2.r	4gg	4ee	4ee	4G	4G	4ee	4ee
.	4a	4A	.	4ff#	4dd	4dd	4A	4A	4dd	4dd
.	4A	4AA	.	4ee	4cc#	4cc#	4AA	4AA	4cc#	4cc#
=24	=24	=24	=24	=24	=24	=24	=24	=24	=24	=24
[2.g	4d	[2.D	[2.G	4dd	4dd	4dd	4D	4D	4dd	4dd
.	2r	.	.	2r	2r	4r	2r	2r	4r	2r
.	.	.	.	.	.	8eee	.	.	8ee	.
.	.	.	.	.	.	8ddd	.	.	8dd	.
=25	=25	=25	=25	=25	=25	=25	=25	=25	=25	=25
2.g_	4r	2.D_	2.G_	2.r	2.r	2.bb	4r	4r	2.b	4r
.	4f	.	.	.	.	.	4f	4d	.	4G#
.	4f	.	.	.	.	.	4f	4d	.	4G#
=26	=26	=26	=26	=26	=26	=26	=26	=26	=26	=26
2.g_	4e	2.D_	2.G_	2.r	2.r	8ddd	4e	4c	8dd	4A
.	.	.	.	.	.	8ccc	.	.	8cc	.
.	2r	.	.	.	.	4aa	2r	2r	4a	2r
.	.	.	.	.	.	8ccc	.	.	8cc	.
.	.	.	.	.	.	8bb	.	.	8b	.
=27	=27	=27	=27	=27	=27	=27	=27	=27	=27	=27
2.g]	4r	2.D_	2.G]	2.r	2.r	2.gg	4r	4r	2.g	4r
.	4e	.	.	.	.	.	4e	4c#	.	4c#
.	4e	.	.	.	.	.	4e	4c#	.	4c#
=28	=28	=28	=28	=28	=28	=28	=28	=28	=28	=28
2.r	4d	2D]	2.r	2.r	2.r	8bb	4d	4d	8b	4d
.	.	.	.	.	.	8aa	.	.	8a	.
.	4r	.	.	.	.	4dd	4r	4r	4d	4r
.	8c#	8C#	.	.	.	4r	8C#	8C#	8c#	8c#
.	8d	8D	.	.	.	.	8D	8D	8d	8d
=29	=29	=29	=29	=29	=29	=29	=29	=29	=29	=29
2.r	8g	8G	2.r	2.r	2.r	2.r	8G	8G	8g	8g
.	8f#	8F#	.	.	.	.	8F#	8F#	8f#	8f#
.	8a	8A	.	.	.	.	8A	8A	8a	8a
.	8g	8G	.	.	.	.	8G	8G	8g	8g
.	8b	8B	.	.	.	.	8B	8B	8b	8b
.	8a	8A	.	.	.	.	8A	8A	8a	8a
=30	=30	=30	=30	=30	=30	=30	=30	=30	=30	=30
2.r	8cc	8c	2.r	2r	2r	2r	8c	8c	8cc	8cc
.	8b	8B	.	.	.	.	8B	8B	8b	8b
.	8a	8A	.	.	.	.	8A	8A	8a	8a
.	8g	8G	.	.	.	.	8G	8G	8g	8g
.	8a	8A	.	8a	8a	8a	8A	8A	8a	8a
.	8b	8B	.	8b	8b	8b	8B	8B	8b	8b
=31	=31	=31	=31	=31	=31	=31	=31	=31	=31	=31
2.r	8cc	8c	2.r	8cc	8cc	8cc	8c	8c	8cc	8cc
.	8b	8B	.	8b	8b	8b	8B	8B	8b	8b
.	8dd	8d	.	8dd	8dd	8dd	8d	8d	8dd	8dd
.	8cc	8c	.	8cc	8cc	8cc	8c	8c	8cc	8cc
.	8ee	8e	.	8ee	8ee	8ee	8e	8e	8ee	8ee
.	8dd	8d	.	8dd	8dd	8dd	8d	8d	8dd	8dd
=32	=32	=32	=32	=32	=32	=32	=32	=32	=32	=32
2.r	8gg	8g	2.r	8gg	8gg	8gg	8g	8g	8gg	8gg
.	8ff#	8f#	.	8ff#	8ff#	8ff#	8f#	8f#	8ff#	8ff#
.	8ee	8e	.	8ee	8ee	8ee	8e	8e	8ee	8ee
.	8dd	8d	.	8dd	8dd	8dd	8d	8d	8dd	8dd
.	8cc	8c	.	8cc	8cc	8cc	8c	8c	8cc	8cc
.	8b	8B	.	8b	8b	8b	8B	8B	8b	8b
=33	=33	=33	=33	=33	=33	=33	=33	=33	=33	=33
2r	2cc	2c	2r	4a	4a	4a	2c	2c	4a	4a
.	.	.	.	4aa	4cc	4aa	.	.	4aa 4cc	4aa 4cc
4dd	4dd	4d	4g	4ff#	4a	4ff#	4d	4d	4ff# 4a	4ff# 4a
=34	=34	=34	=34	=34	=34	=34	=34	=34	=34	=34
4ee	4g	4G	4cc	4gg	4g	4gg	4G	4G	4b 4gg	4gg 4b
2r	4G	4GG	2r	2r	2r	2r	4GG	4GG	4r	2r
.	4r	4r	.	.	.	.	4r	4r	8ee	.
.	.	.	.	.	.	.	.	.	8dd	.
=35	=35	=35	=35	=35	=35	=35	=35	=35	=35	=35
2.r	4r	4r	2.r	2.r	2.r	2.r	2.r	2.r	2.b	4r
.	4G	4G	.	.	.	.	.	.	.	4d 4B
.	4B	4G	.	.	.	.	.	.	.	4B 4d
=36	=36	=36	=36	=36	=36	=36	=36	=36	=36	=36
2.r	4A	4F#	2.r	2.r	2.r	2.r	2.r	2.r	8dd	4d 4c
.	.	.	.	.	.	.	.	.	8cc	.
.	2r	2r	.	.	.	.	.	.	4a	2r
.	.	.	.	.	.	.	.	.	8dd	.
.	.	.	.	.	.	.	.	.	8cc	.
=37	=37	=37	=37	=37	=37	=37	=37	=37	=37	=37
2.r	4r	4r	2.r	2.r	2.r	2.r	2.r	2.r	4a	4r
.	4d	4D	.	.	.	.	.	.	4r	4f# 4A
.	4r	4r	.	.	.	.	.	.	8cc	4r
.	.	.	.	.	.	.	.	.	8b	.
=38	=38	=38	=38	=38	=38	=38	=38	=38	=38	=38
2.r	4r	4r	2.r	2.r	2.r	2r	2.r	2.r	4g	4r
.	4g 4d	4G	.	.	.	.	.	.	4r	4g 4B
.	4r	4r	.	.	.	8ddd	.	.	8ddd	4r
.	.	.	.	.	.	8ccc	.	.	8ccc	.
=39	=39	=39	=39	=39	=39	=39	=39	=39	=39	=39
4r	2.r	2.r	4r	4r	4r	4aa	4r	4r	4aa	4r
4dd	.	.	4g	4ff#	4a	4r	4A	4D	4r	4a 4d
4r	.	.	4r	4r	4r	8ccc	4r	4r	8ccc	4r
.	.	.	.	.	.	8bb	.	.	8bb	.
=40	=40	=40	=40	=40	=40	=40	=40	=40	=40	=40
4r	2r	2r	4r	4r	4r	4gg	4r	4r	4gg	4r
4ee	.	.	4cc	4gg	4b	2r	4B	4G	2r	4g 4b
4r	8d	8d	4r	4r	4r	.	4r	4r	.	4r
.	8c	8c	.	.	.	.	.	.	.	.
=41	=41	=41	=41	=41	=41	=41	=41	=41	=41	=41
4r	4A	4A	4r	4r	4r	4r	4r	4r	4r	4r
4dd	4r	4r	4g	4ff#	4cc	4ff#	4A	4D	4ff# 4a 4d	4ff# 4a 4d
4r	8c	8c	4r	4r	4r	4r	4r	4r	4r	4r
.	8B	8B	.	.	.	.	.	.	.	.
=42	=42	=42	=42	=42	=42	=42	=42	=42	=42	=42
4r	4G	4G	4r	4r	4r	4r	4r	4r	4r	4r
4cc	4r	4r	4e	4gg	4b	4gg	4G	4GG	4gg 4b 4d	4gg 4b 4d
4r	4r	4r	4r	4r	4r	8gg	4r	4r	8g	4r
.	.	.	.	.	.	8aa	.	.	8a	.
=43	=43	=43	=43	=43	=43	=43	=43	=43	=43	=43
2.r	4g	4G	2.r	2.r	2.r	4bb	2.r	2.r	4b	4d
.	4r	4r	.	.	.	4bb	.	.	4b	4r
.	4d#	4D#	.	.	.	4bb	.	.	4b	4f#
=44	=44	=44	=44	=44	=44	=44	=44	=44	=44	=44
2.r	4e	4E	2.r	2.r	2.r	8bb	2.r	2.r	8b	4g
.	.	.	.	.	.	8aa	.	.	8a	.
.	4r	4r	.	.	.	8bb	.	.	8b	4r
.	.	.	.	.	.	8gg	.	.	8g	.
.	4d	4D	.	.	.	8aa	.	.	8a	4f
.	.	.	.	.	.	8bb	.	.	8b	.
=45	=45	=45	=45	=45	=45	=45	=45	=45	=45	=45
2.r	4c	4C	2.r	2.r	2.r	8ccc	2.r	2.r	8cc	4e
.	.	.	.	.	.	8ddd	.	.	8dd	.
.	2r	2r	.	.	.	8eee	.	.	8ee	2r
.	.	.	.	.	.	8ddd	.	.	8dd	.
.	.	.	.	.	.	8ccc	.	.	8cc	.
.	.	.	.	.	.	8bb	.	.	8b	.
=46	=46	=46	=46	=46	=46	=46	=46	=46	=46	=46
2.r	4d	4D	2.r	2.r	2.r	8aa	2.r	2.r	8a	4f#
.	.	.	.	.	.	8gg	.	.	8g	.
.	2r	2r	.	.	.	8aa	.	.	8a	2r
.	.	.	.	.	.	8dd	.	.	8d	.
.	.	.	.	.	.	8gg	.	.	8g	.
.	.	.	.	.	.	8aa	.	.	8a	.
=47	=47	=47	=47	=47	=47	=47	=47	=47	=47	=47
2.r	4g	4G	2.r	2.r	2.r	4bb	2.r	2.r	4b	4d
.	4r	4r	.	.	.	4bb	.	.	4b	4r
.	4d#	4D#	.	.	.	4bb	.	.	4b	4f#
=48	=48	=48	=48	=48	=48	=48	=48	=48	=48	=48
2.r	4e	4E	2.r	2.r	2.r	8bb	2.r	2.r	8b	4g
.	.	.	.	.	.	8aa	.	.	8a	.
.	2r	2r	.	.	.	8bb	.	.	8b	2r
.	.	.	.	.	.	8gg	.	.	8g	.
.	.	.	.	.	.	8eee	.	.	8ee	.
.	.	.	.	.	.	8ddd	.	.	8dd	.
=49	=49	=49	=49	=49	=49	=49	=49	=49	=49	=49
2.r	4e	4A	2.r	2.r	2.r	8ccc#	2.r	2.r	8cc#	4g
.	.	.	.	.	.	8bb	.	.	8b	.
.	4e	4A	.	.	.	8ccc#	.	.	8cc#	4g
.	.	.	.	.	.	8aa	.	.	8a	.
.	4e	4A	.	.	.	8bb	.	.	8b	4g
.	.	.	.	.	.	8ccc#	.	.	8cc#	.
=50	=50	=50	=50	=50	=50	=50	=50	=50	=50	=50
2r	4d	4D	2r	2r	2r	4ddd	2r	2r	4dd	4f#
.	4r	4r	.	.	.	4r	.	.	4r	4r
4r	4r	4r	4r	4r	4r	8aa	4r	4r	8aa	4r
.	.	.	.	.	.	8gg	.	.	8gg	.
=51	=51	=51	=51	=51	=51	=51	=51	=51	=51	=51
2.r	4d	4d	2.r	2.r	2.r	8ff#	2.r	2.r	8ff#	4d
.	.	.	.	.	.	8ee	.	.	8ee	.
.	4r	4r	.	.	.	8ff#	.	.	8ff#	4r
.	.	.	.	.	.	8dd	.	.	8dd	.
.	4a	4c	.	.	.	8ee	.	.	8ee	4d
.	.	.	.	.	.	8ff#	.	.	8ff#	.
=52	=52	=52	=52	=52	=52	=52	=52	=52	=52	=52
2.r	4g	4B	2.r	2.r	2.r	8gg	2.r	2.r	8gg	4d
.	.	.	.	.	.	8ff#	.	.	8ff#	.
.	2r	2r	.	.	.	8gg	.	.	8gg	2r
.	.	.	.	.	.	8dd	.	.	8dd	.
.	.	.	.	.	.	8bb	.	.	8bb	.
.	.	.	.	.	.	8aa	.	.	8aa	.
=53	=53	=53	=53	=53	=53	=53	=53	=53	=53	=53
2.r	4e	4E	2.r	2.r	2.r	8gg	2.r	2.r	8gg	4b
.	.	.	.	.	.	8ff#	.	.	8ff#	.
.	4r	4r	.	.	.	8ee	.	.	8ee	4r
.	.	.	.	.	.	8dd	.	.	8dd	.
.	4a	4A	.	.	.	8cc#	.	.	8cc#	4g
.	.	.	.	.	.	8ee	.	.	8ee	.
=54	=54	=54	=54	=54	=54	=54	=54	=54	=54	=54
2.r	4d	4D	2.r	2.r	2.r	8dd	2.r	2.r	8dd	4f#
.	.	.	.	.	.	8cc#	.	.	8cc#	.
.	4r	4r	.	.	.	8dd	.	.	8dd	4r
.	.	.	.	.	.	8cc	.	.	8cc	.
.	4e	8e	.	.	.	4b	.	.	4b	4g#
.	.	8d	.	.	.	.	.	.	.	.
=55	=55	=55	=55	=55	=55	=55	=55	=55	=55	=55
2.r	4e	8c	2.r	2.r	2.r	4cc	2.r	2.r	4cc	4a
.	.	8B	.	.	.	.	.	.	.	.
.	4r	8c	.	.	.	4r	.	.	4r	4r
.	.	8A	.	.	.	.	.	.	.	.
.	4d	8d	.	.	.	4a	.	.	4a	4f#
.	.	8c	.	.	.	.	.	.	.	.
=56	=56	=56	=56	=56	=56	=56	=56	=56	=56	=56
2.r	4d	8B	2.r	2.r	2.r	4b	2.r	2.r	4b	4g
.	.	8A	.	.	.	.	.	.	.	.
.	4r	8B	.	.	.	4r	.	.	4r	4r
.	.	8G	.	.	.	.	.	.	.	.
.	4B	4BB	.	.	.	8gg	.	.	8gg	4d
.	.	.	.	.	.	8ff#	.	.	8ff#	.
=57	=57	=57	=57	=57	=57	=57	=57	=57	=57	=57
2.r	4c	2C	2.r	2.r	2.r	8ee	2.r	2.r	8ee	2.e
.	.	.	.	.	.	8dd	.	.	8dd	.
.	4r	.	.	.	.	8cc	.	.	8cc	.
.	.	.	.	.	.	8b	.	.	8b	.
.	4c#	4C#	.	.	.	8a	.	.	8a	.
.	.	.	.	.	.	8g	.	.	8g	.
=58	=58	=58	=58	=58	=58	=58	=58	=58	=58	=58
2.r	4d	4D	2.r	2.r	2.r	4dd	2.r	2.r	4d	4d
.	2r	2r	.	.	.	8ee	.	.	8e	2r
.	.	.	.	.	.	8ff#	.	.	8f#	.
.	.	.	.	.	.	8gg	.	.	8g	.
.	.	.	.	.	.	8aa	.	.	8a	.
=59	=59	=59	=59	=59	=59	=59	=59	=59	=59	=59
2.r	4G	4GG	2.r	2.r	2.r	4bb	2.r	2.r	4b	4d
.	4r	4r	.	.	.	4bb	.	.	4b	4r
.	4d#	4D#	.	.	.	4bb	.	.	4b	4f#
=60	=60	=60	=60	=60	=60	=60	=60	=60	=60	=60
2.r	4e	4E	2.r	2.r	2.r	8bb	2.r	2.r	8b	4g
.	.	.	.	.	.	8aa	.	.	8a	.
.	4r	4r	.	.	.	8bb	.	.	8b	4r
.	.	.	.	.	.	8gg	.	.	8g	.
.	4d	4D	.	.	.	8aa	.	.	8a	4f
.	.	.	.	.	.	8bb	.	.	8b	.
=61	=61	=61	=61	=61	=61	=61	=61	=61	=61	=61
2.r	4c	4C	2.r	2.r	2.r	8ccc	2.r	2.r	8cc	4e
.	.	.	.	.	.	8ddd	.	.	8dd	.
.	2r	2r	.	.	.	8eee	.	.	8ee	2r
.	.	.	.	.	.	8ddd	.	.	8dd	.
.	.	.	.	.	.	8ccc	.	.	8cc	.
.	.	.	.	.	.	8bb	.	.	8b	.
=62	=62	=62	=62	=62	=62	=62	=62	=62	=62	=62
2.r	4d	4D	2.r	2.r	2.r	8aa	2.r	2.r	8a	4f#
.	.	.	.	.	.	8gg	.	.	8g	.
.	2r	2r	.	.	.	8aa	.	.	8a	2r
.	.	.	.	.	.	8dd	.	.	8d	.
.	.	.	.	.	.	8gg	.	.	8g	.
.	.	.	.	.	.	8aa	.	.	8a	.
=63	=63	=63	=63	=63	=63	=63	=63	=63	=63	=63
2.r	4g	4G	2.r	2.r	2.r	4bb	2.r	2.r	4b	4d
.	4r	4r	.	.	.	4bb	.	.	4b	4r
.	4d#	4D#	.	.	.	4bb	.	.	4b	4f#
=64	=64	=64	=64	=64	=64	=64	=64	=64	=64	=64
2.r	4e	4E	2.r	2.r	2.r	8bb	2.r	2.r	8b	4g
.	.	.	.	.	.	8aa	.	.	8a	.
.	4r	4r	.	.	.	8bb	.	.	8b	4r
.	.	.	.	.	.	8gg	.	.	8g	.
.	4d	4D	.	.	.	8aa	.	.	8a	4f
.	.	.	.	.	.	8bb	.	.	8b	.
=65	=65	=65	=65	=65	=65	=65	=65	=65	=65	=65
2.r	4c	4C	2.r	2.r	2.r	8ccc	2.r	2.r	8cc	4e
.	.	.	.	.	.	8ddd	.	.	8dd	.
.	4r	4r	.	.	.	8eee	.	.	8ee	4r
.	.	.	.	.	.	8ccc	.	.	8cc	.
.	4d	4D	.	.	.	8aa	.	.	8a	4c
.	.	.	.	.	.	8ff#	.	.	8f#	.
=66	=66	=66	=66	=66	=66	=66	=66	=66	=66	=66
2.r	4G	4GG	2.r	2.r	2.r	4gg	2.r	2.r	4g	4B
.	2r	2r	.	.	.	2r	.	.	2r	2r
==	==	==	==	==	==	==	==	==	==	==
*-	*-	*-	*-	*-	*-	*-	*-	*-	*-	*-
!!!RWG1: This file contains only pitch and duration data.
!!!RWG2: Transposing instruments are not transposed.
!!!RWG3: Spines may have incompatible meters.
!!!RWG4: Durations of rests and tied notes may be interpreted.
!!!RWG: Key is interpreted using the Humdrum key tool.
!!!OPT: La Poule
!!!AFT: stage1
!!!END: 1997/04/15
!!format changes:
!!content changes:
!!public access: complete
!!!KEY: 3803769113
!!!EMD: Converted from MuseData to Humdrum Dec 16, 2000, by Andreas Kornstaedt using muse2kern.
